library/icons/stop_sign.svg

<?xml version="1.0" encoding="UTF-8" standalone="no"?>
<svg
   xmlns:dc="http://purl.org/dc/elements/1.1/"
   xmlns:cc="http://creativecommons.org/ns#"
   xmlns:rdf="http://www.w3.org/1999/02/22-rdf-syntax-ns#"
   xmlns:svg="http://www.w3.org/2000/svg"
   xmlns="http://www.w3.org/2000/svg"
   xmlns:sodipodi="http://sodipodi.sourceforge.net/DTD/sodipodi-0.dtd"
   xmlns:inkscape="http://www.inkscape.org/namespaces/inkscape"
   enable-background="new 0 0 512 512"
   id="Layer_1"
   version="1.1"
   viewBox="0 0 512 512"
   xml:space="preserve"
   inkscape:version="0.91 r13725"
   sodipodi:docname="stop_sign.svg"><metadata
     id="metadata27"><rdf:RDF><cc:Work
         rdf:about=""><dc:format>image/svg+xml</dc:format><dc:type
           rdf:resource="http://purl.org/dc/dcmitype/StillImage" /><dc:title></dc:title></cc:Work></rdf:RDF></metadata><defs
     id="defs25" /><sodipodi:namedview
     pagecolor="#ffffff"
     bordercolor="#666666"
     borderopacity="1"
     objecttolerance="10"
     gridtolerance="10"
     guidetolerance="10"
     inkscape:pageopacity="0"
     inkscape:pageshadow="2"
     inkscape:window-width="1366"
     inkscape:window-height="715"
     id="namedview23"
     showgrid="false"
     inkscape:zoom="1"
     inkscape:cx="256"
     inkscape:cy="256.54237"
     inkscape:window-x="-4"
     inkscape:window-y="-4"
     inkscape:window-maximized="1"
     inkscape:current-layer="g3" /><g
     id="g3"><path
       style="opacity:1;fill:#000000;fill-opacity:1;stroke:#000000;stroke-width:8.80000019;stroke-miterlimit:4;stroke-dasharray:none;stroke-opacity:1"
       d="M 159.54102 17.003906 L 18.796875 155.21094 L 17.003906 352.45898 L 155.21094 493.20312 L 352.45898 494.99609 L 493.20312 356.78906 L 494.99609 159.54102 L 356.78906 18.796875 L 159.54102 17.003906 z M 82.398438 171.8418 C 87.559787 171.8418 92.238406 172.67521 96.435547 174.33984 C 100.63269 175.9288 104.29065 178.15989 107.41016 181.03516 C 110.58636 183.91042 113.22566 187.31543 115.32422 191.25 C 117.4228 195.18459 119.01025 199.46061 120.08789 204.07617 L 103.32617 211.56641 C 102.58884 209.22082 101.56817 207.06298 100.26367 205.0957 C 98.959139 203.05274 97.371699 201.31262 95.5 199.875 C 93.628289 198.36169 91.47208 197.18973 89.033203 196.35742 C 86.651045 195.52511 83.986462 195.10742 81.037109 195.10742 C 75.195147 195.10742 70.629496 196.8119 67.339844 200.2168 C 64.050192 203.62174 62.40625 208.4244 62.40625 214.62891 C 62.40625 218.48782 63.313925 221.78192 65.128906 224.50586 C 66.943886 227.15413 69.326052 229.50002 72.275391 231.54297 C 75.224744 233.58592 78.571053 235.47649 82.314453 237.2168 C 86.11456 238.88142 89.971213 240.73439 93.884766 242.77734 C 97.855039 244.74462 101.71167 247.05289 105.45508 249.70117 C 109.25519 252.27377 112.62878 255.45307 115.57812 259.23633 C 118.52746 262.9439 120.90962 267.44371 122.72461 272.74023 C 124.53959 277.9611 125.44727 284.24057 125.44727 291.58008 C 125.44727 299.37354 124.36818 306.29837 122.21289 312.35156 C 120.11432 318.32907 117.19456 323.39899 113.45117 327.56055 C 109.70777 331.64645 105.28432 334.7862 100.17969 336.98047 C 95.131768 339.0991 89.687674 340.1582 83.845703 340.1582 C 78.400755 340.1582 73.29558 339.2139 68.53125 337.32227 C 63.823645 335.50632 59.540427 332.89319 55.683594 329.48828 C 51.883478 326.00768 48.593641 321.84647 45.814453 317.00391 C 43.035263 312.08568 40.879047 306.602 39.347656 300.54883 L 56.449219 292.26172 C 57.697017 295.89363 59.229941 299.22341 61.044922 302.25 C 62.916621 305.2766 65.041666 307.88776 67.423828 310.08203 C 69.80599 312.20065 72.416054 313.86553 75.251953 315.07617 C 78.144578 316.28678 81.235741 316.89258 84.525391 316.89258 C 87.81504 316.89258 90.820506 316.36202 93.542969 315.30273 C 96.265442 314.24341 98.591128 312.65573 100.51953 310.53711 C 102.44796 308.41849 103.94971 305.80539 105.02734 302.70312 C 106.10498 299.52519 106.64648 295.8945 106.64648 291.80859 C 106.64648 286.96604 105.73881 282.91765 103.92383 279.66406 C 102.10885 276.3348 99.72669 273.46032 96.777344 271.03906 C 93.828009 268.61778 90.452451 266.49953 86.652344 264.68359 C 82.908933 262.86763 79.050349 261.01271 75.080078 259.12109 C 71.166526 257.22947 67.309882 255.10929 63.509766 252.76367 C 59.76637 250.41807 56.420047 247.54359 53.470703 244.13867 C 50.521361 240.73375 48.139199 236.64771 46.324219 231.88086 C 44.509238 227.11395 43.601562 221.28784 43.601562 214.40234 C 43.601562 208.65181 44.452755 203.20379 46.154297 198.05859 C 47.91256 192.91336 50.438862 188.41359 53.728516 184.55469 C 57.018167 180.62013 61.071536 177.51799 65.892578 175.24805 C 70.713615 172.97811 76.216161 171.8418 82.398438 171.8418 z M 302.37305 171.8418 C 308.89562 171.8418 314.73709 173.01375 319.89844 175.35938 C 325.05979 177.62931 329.59816 180.771 333.51172 184.78125 C 337.48198 188.71583 340.85559 193.4076 343.63477 198.85547 C 346.41396 204.22766 348.68315 210.05379 350.44141 216.33398 C 352.19968 222.5385 353.47548 229.04564 354.26953 235.85547 C 355.06358 242.58964 355.46094 249.28485 355.46094 255.94336 C 355.46094 262.67753 355.06358 269.44992 354.26953 276.25977 C 353.47548 282.99395 352.19968 289.50105 350.44141 295.78125 C 348.68315 301.98576 346.41396 307.81192 343.63477 313.25977 C 340.85559 318.63199 337.48198 323.32375 333.51172 327.33398 C 329.59816 331.26856 325.05979 334.40633 319.89844 336.75195 C 314.73709 339.02189 308.89562 340.1582 302.37305 340.1582 C 295.85044 340.1582 290.009 339.02189 284.84766 336.75195 C 279.6863 334.40633 275.11872 331.26856 271.14844 327.33398 C 267.2349 323.32375 263.88855 318.63199 261.10938 313.25977 C 258.33018 307.81192 256.06098 301.98576 254.30273 295.78125 C 252.54446 289.50105 251.2414 282.99395 250.39062 276.25977 C 249.59656 269.44992 249.19922 262.67753 249.19922 255.94336 C 249.19922 249.28485 249.59656 242.58964 250.39062 235.85547 C 251.2414 229.04564 252.54446 222.5385 254.30273 216.33398 C 256.06098 210.05379 258.33019 204.22766 261.10938 198.85547 C 263.88855 193.4076 267.2349 188.71583 271.14844 184.78125 C 275.11872 180.771 279.6863 177.6293 284.84766 175.35938 C 290.009 173.01374 295.85044 171.8418 302.37305 171.8418 z M 145.33789 174.56641 L 232.45703 174.56641 L 232.45703 197.83203 L 198 197.83203 L 198 337.32227 L 179.88086 337.32227 L 179.88086 197.83203 L 145.33789 197.83203 L 145.33789 174.56641 z M 384.19922 174.56641 L 433.20312 174.56641 C 440.68992 174.56641 446.98717 176.04126 452.0918 178.99219 C 457.25315 181.86743 461.39223 185.65059 464.51172 190.3418 C 467.68793 195.03303 469.95712 200.36819 471.31836 206.3457 C 472.73632 212.24755 473.44727 218.26176 473.44727 224.39062 C 473.44727 228.17387 473.10641 232.03223 472.42578 235.9668 C 471.80189 239.90137 470.80851 243.72407 469.44727 247.43164 C 468.08603 251.06356 466.32716 254.50422 464.17188 257.75781 C 462.0166 261.0114 459.4377 263.85022 456.43164 266.27148 C 453.48231 268.69277 450.0795 270.62096 446.22266 272.05859 C 442.36584 273.42057 438.02416 274.10156 433.20312 274.10156 L 402.32227 274.10156 L 402.32227 337.32227 L 384.19922 337.32227 L 384.19922 174.56641 z M 302.37305 195.10742 C 298.11919 195.10742 294.31904 196.01607 290.97266 197.83203 C 287.62631 199.57232 284.67732 201.95779 282.125 204.98438 C 279.57269 208.01098 277.38724 211.56644 275.57227 215.65234 C 273.814 219.66257 272.36874 223.93666 271.23438 228.47656 C 270.10002 232.94078 269.27609 237.55537 268.76562 242.32227 C 268.25516 247.01348 268.00195 251.5548 268.00195 255.94336 C 268.00195 263.05585 268.59604 270.24398 269.78711 277.50781 C 270.9782 284.69596 272.93575 291.2407 275.6582 297.14258 C 278.38068 302.96878 281.92566 307.73578 286.29297 311.44336 C 290.66026 315.07527 296.02061 316.89258 302.37305 316.89258 C 306.62691 316.89258 310.42708 316.01957 313.77344 314.2793 C 317.11981 312.46334 320.03957 310.04221 322.53516 307.01562 C 325.08749 303.98903 327.24369 300.47313 329.00195 296.46289 C 330.81694 292.37699 332.29142 288.10096 333.42578 283.63672 C 334.56014 279.09684 335.38409 274.48028 335.89453 269.78906 C 336.405 265.02215 336.6582 260.40759 336.6582 255.94336 C 336.6582 251.25213 336.405 246.48514 335.89453 241.64258 C 335.38409 236.72436 334.56014 232.03259 333.42578 227.56836 C 332.29142 223.02848 330.81694 218.792 329.00195 214.85742 C 327.24369 210.92285 325.08749 207.51784 322.53516 204.64258 C 320.03957 201.69163 317.11981 199.38533 313.77344 197.7207 C 310.42708 195.98043 306.62691 195.10742 302.37305 195.10742 z M 402.32227 197.83203 L 402.32227 250.83594 L 434.22461 250.83594 C 438.02472 250.83594 441.20159 250.04014 443.75391 248.45117 C 446.36294 246.86221 448.46071 244.8192 450.04883 242.32227 C 451.69364 239.74966 452.85844 236.91476 453.53906 233.8125 C 454.27639 230.63459 454.64258 227.4929 454.64258 224.39062 C 454.64258 221.51537 454.33288 218.52803 453.70898 215.42578 C 453.08508 212.3235 452.00795 209.48472 450.47656 206.91211 C 448.94517 204.26385 446.84544 202.108 444.17969 200.44336 C 441.57064 198.70307 438.25159 197.83203 434.22461 197.83203 L 402.32227 197.83203 z "
       id="path4212" /></g></svg>

<svg xmlns="http://www.w3.org/2000/svg" enable-background="new 0 0 512 512" viewBox="0 0 512 512"><path d="m159.54 17l-140.74 138.21-1.793 197.25 138.21 140.74 197.25 1.793 140.74-138.21 1.793-197.25-138.21-140.74-197.25-1.793zm-77.14 154.84c5.161 0 9.84.833 14.04 2.498 4.197 1.589 7.855 3.82 10.975 6.695 3.176 2.875 5.816 6.28 7.914 10.215 2.099 3.935 3.686 8.211 4.764 12.826l-16.762 7.49c-.737-2.346-1.758-4.503-3.063-6.471-1.305-2.043-2.892-3.783-4.764-5.221-1.872-1.513-4.03-2.685-6.467-3.518-2.382-.832-5.05-1.25-7.996-1.25-5.842 0-10.408 1.704-13.697 5.109-3.29 3.405-4.934 8.208-4.934 14.412 0 3.859.908 7.153 2.723 9.877 1.815 2.648 4.197 4.994 7.146 7.04 2.949 2.043 6.296 3.934 10.04 5.674 3.8 1.665 7.657 3.518 11.57 5.561 3.97 1.967 7.827 4.276 11.57 6.924 3.8 2.573 7.174 5.752 10.123 9.535 2.949 3.708 5.332 8.207 7.146 13.504 1.815 5.221 2.723 11.5 2.723 18.84 0 7.793-1.079 14.718-3.234 20.771-2.099 5.978-5.02 11.05-8.762 15.209-3.743 4.086-8.167 7.226-13.271 9.42-5.05 2.119-10.492 3.178-16.334 3.178-5.445 0-10.55-.944-15.314-2.836-4.708-1.816-8.991-4.429-12.848-7.834-3.8-3.481-7.09-7.642-9.869-12.484-2.779-4.918-4.935-10.402-6.467-16.455l17.1-8.287c1.248 3.632 2.781 6.962 4.596 9.988 1.872 3.03 3.997 5.638 6.379 7.832 2.382 2.119 4.992 3.784 7.828 4.994 2.893 1.211 5.984 1.816 9.273 1.816 3.29 0 6.295-.531 9.02-1.59 2.722-1.059 5.05-2.647 6.977-4.766 1.928-2.119 3.43-4.732 4.508-7.834 1.078-3.178 1.619-6.809 1.619-10.895 0-4.843-.908-8.891-2.723-12.145-1.815-3.329-4.197-6.204-7.146-8.625-2.949-2.421-6.325-4.54-10.125-6.355-3.743-1.816-7.602-3.671-11.572-5.563-3.914-1.892-7.77-4.01-11.57-6.357-3.743-2.346-7.09-5.22-10.04-8.625-2.949-3.405-5.332-7.491-7.146-12.258-1.815-4.767-2.723-10.593-2.723-17.479 0-5.751.851-11.199 2.553-16.344 1.758-5.145 4.285-9.645 7.574-13.504 3.29-3.935 7.343-7.04 12.164-9.307 4.821-2.27 10.324-3.406 16.506-3.406zm219.97 0c6.523 0 12.364 1.172 17.525 3.518 5.161 2.27 9.7 5.412 13.613 9.422 3.97 3.935 7.344 8.626 10.123 14.07 2.779 5.372 5.05 11.198 6.807 17.479 1.758 6.205 3.034 12.712 3.828 19.521.794 6.734 1.191 13.429 1.191 20.09 0 6.734-.397 13.507-1.191 20.316-.794 6.734-2.07 13.241-3.828 19.521-1.758 6.205-4.03 12.03-6.807 17.479-2.779 5.372-6.153 10.06-10.123 14.07-3.914 3.935-8.452 7.07-13.613 9.418-5.161 2.27-11 3.406-17.525 3.406-6.523 0-12.364-1.136-17.525-3.406-5.161-2.346-9.729-5.483-13.699-9.418-3.914-4.01-7.26-8.702-10.04-14.07-2.779-5.448-5.05-11.274-6.807-17.479-1.758-6.28-3.061-12.787-3.912-19.521-.794-6.81-1.191-13.582-1.191-20.316 0-6.659.397-13.354 1.191-20.09.851-6.81 2.154-13.317 3.912-19.521 1.758-6.28 4.03-12.11 6.807-17.479 2.779-5.448 6.126-10.14 10.04-14.07 3.97-4.01 8.538-7.152 13.699-9.422 5.161-2.346 11-3.518 17.525-3.518zm-157.04 2.725h87.12v23.266h-34.457v139.49h-18.12v-139.49h-34.543v-23.266zm238.86 0h49c7.487 0 13.784 1.475 18.889 4.426 5.161 2.875 9.3 6.658 12.42 11.35 3.176 4.691 5.445 10.03 6.807 16 1.418 5.902 2.129 11.916 2.129 18.04 0 3.783-.341 7.642-1.021 11.576-.624 3.935-1.617 7.757-2.979 11.465-1.361 3.632-3.12 7.07-5.275 10.326-2.155 3.254-4.734 6.092-7.74 8.514-2.949 2.421-6.352 4.349-10.209 5.787-3.857 1.362-8.199 2.043-13.02 2.043h-30.881v63.22h-18.12v-162.76zm-81.83 20.541c-4.254 0-8.05.909-11.4 2.725-3.346 1.74-6.295 4.126-8.848 7.152-2.552 3.03-4.738 6.582-6.553 10.668-1.758 4.01-3.204 8.284-4.338 12.824-1.134 4.464-1.958 9.08-2.469 13.846-.51 4.691-.764 9.233-.764 13.621 0 7.112.594 14.301 1.785 21.564 1.191 7.188 3.149 13.733 5.871 19.635 2.722 5.826 6.267 10.593 10.635 14.301 4.367 3.632 9.728 5.449 16.08 5.449 4.254 0 8.05-.873 11.4-2.613 3.346-1.816 6.266-4.237 8.762-7.264 2.552-3.03 4.709-6.542 6.467-10.553 1.815-4.086 3.289-8.362 4.424-12.826 1.134-4.54 1.958-9.156 2.469-13.848.51-4.767.764-9.381.764-13.846 0-4.691-.253-9.458-.764-14.301-.51-4.918-1.334-9.61-2.469-14.07-1.134-4.54-2.609-8.776-4.424-12.711-1.758-3.935-3.914-7.34-6.467-10.215-2.496-2.951-5.415-5.257-8.762-6.922-3.346-1.74-7.147-2.613-11.4-2.613zm99.95 2.725v53h31.902c3.8 0 6.977-.796 9.529-2.385 2.609-1.589 4.707-3.632 6.295-6.129 1.645-2.573 2.81-5.408 3.49-8.51.737-3.178 1.104-6.32 1.104-9.422 0-2.875-.31-5.863-.934-8.965-.624-3.102-1.701-5.941-3.232-8.514-1.531-2.648-3.631-4.804-6.297-6.469-2.609-1.74-5.928-2.611-9.955-2.611h-31.902z" stroke="#000" stroke-width="8.8"/></svg>
